X:113
T:The Hemp-Dresser
T:The London Gentlewoman
Z:Jack Campin, http://www.campin.me.uk/
F:Jack Campin's Nine-Note Tunebook
% last edit 03-02-2013
S:Simpson, The British Broadside Ballad and Its Music
N:original of "The Deil's Awa wi th'Exciseman"
M:6/4
L:1/4
Q:3/4=112
K:CMix
F|F2c  cdc|B2A GAB|cdF F2G|A3 c2:|
c|A2G  FGA|G2E C2C|C2F F2G|A3 c2
c|A>GA FGA|G2C C2C|C2F F2G|A3 c2|]

